X: 1
T:Simple Gifts
T:Lord of the Dance
C:Trad., arr. Chris Layer
S:Hamish Moore's School of Piping
Z:Transcribed by A. Upton
Q:120
M:C
L:1/16
K:D
d2defdfg a2agf2de|e2A2e2A2 efedA2A2|d2defdfg a2agf2de|e2A2f2fe d2dcd4:|!
a4f3e fgfed2de|f2fga2gf e2efe2A2|d2defdfg a2agf2de|e2e2f2fe d2dcd4:|!
